X:839
T:Frog's reel, The  []
O:ireland
S:irtrad, 11/97, Paul de Grae
M:4/4
L:1/8
N:On the fiddle, it can be played as noted, in the key of A (with
N:G natural, i.e., A mixolydian) on the first two strings, and then
N:in the key of D (mixo.) on the middle strings using the same
N:fingering.  Or in D first and then A.  Or indeed in G on the two
N:lowest strings, then in D, and then in A.  Whatever...
K:Amix
A2 (3cBA defe | cdec Bc (3dcB | A2 cA defa |1 gece d2 cB :|2 gece d2 ef ||:
(gfe fd cdec | A2 (3cBA cdef | (3gfe fd cdea |1 gece d2 ef :|2 gece d2 cB || A2
